X:1
T:Eine  Kleine Nachmusik
T:Eine  Kleine Nachmusik
T:I: Allegro, from Serenade No.13 in G Major  K V .525 
T:Composed: Wolfgang Amadeus Mozart (1756 - 1791)
T:Arranged: D. J. Wilson
T:For Piano
T:W. A. Mozart.
T:Serenade No.13 KV.525
T:Transcribed: D. J. Wilson For Pianoforte 
T:copyright@djwilson2k19
T:copyright@djwilson2k19
T:copyright@djwilson2k19
T:copyright@djwilson2k19
T:copyright@djwilson2k19
T:copyright@djwilson2k19
T:copyright@djwilson2k19
T:copyright@djwilson2k19
T:copyright@djwilson2k19
C:Composed: Wolfgang Amadeus Mozart (1756 - 1791)
Z:Arranged: D. J. Wilson
Z:copyright@djwilson2k19
%%score { 1 ( 2 3 ) }
L:1/8
Q:1/4=144
M:4/4
K:G
V:1 treble nm="Piano"
V:2 bass nm="Piano"
V:3 bass 
V:1
|:"^Allegro"!f! !>![GBg]2 z (.[Dd] [Gg]2) z .[Dd] | ([Gg].[Dd].[Gg].[Bb] [dd']2) z2 | %2
 !>![Cc]2 z (.[A,A] [Cc]2) z .[A,A] | ([Cc].[A,A].[F,F].[A,A] [D,D]2) z2 |!mf!{/a} .g2 g3 (.b.ag) | %5
 Tg.f f3 (.a.c'f) | Ta.g g3 (.b.ag) | Tg.f f3 (.a.c'f) | .g.g{.g} .f(.e/.f/) .g.g{.b} .a(.g/.a/) | %9
 .b.b{.d'} .c'(.b/.c'/) .[dd']2 z2 |!p! [Bd]4 [ce]4 |{/d} [Ac]2 [Ac]2{/c} [GB]2 [GB]2 | %12
{/B} .[EA]2 .[EA]2 (GF).E.F | .G z .A z .B z z2 | ([Bd]4 [ce]4) | (dc).c.c (cB).B.B | %16
 (BA).[FA].[FA] (GF[CE][CF]) | G4- G(TG/F/4G/4 AF) | B4- B(TB/A/4B/4 cA) | %19
 [Bd]/[Bd]/[Bd]/[Bd]/ [Bd]/[Bd]/[Bd]/([Bd]/ [ce]/)[ce]/[ce]/([ce]/ [cf]/)[cf]/[cf]/[cf]/ | %20
!<(! [Bg]/[Bg]/[Bg]/([Bg]/ [da]/)[da]/[da]/([da]/ [db]/)[db]/[db]/([db]/ [g^c']/)[gc']/[gc']/[gc']/!<)! | %21
!f! d'3 a (^c'>a) (c'>a) | d'3 a (^c'>a) (c'>a) | .[dd'] .[dd']2 .[dd']2 .[dd']2 .[dd'] | %24
 .[ded'] .[ded']2 .[ded']2 .[ded']2 .[ded'] | !>![e^c'].a!>!d'.a !>!c'.a!>!d'.a | %26
 !>![^c^c']AAA A2 z2 |!p! (a3 (3g/f/e/ d) z b z | g z e z a z z2 | (f3 (3e/d/^c/ B) z g z | %30
 (f4 e2) z2 | z .a.a.a .a.a.a.a | .a.a.a.a .a.a.b.^c' | (^c'd') z b (ba) z ^c | d2 z .a (d'^c'ba) | %35
{/a} (ba) z .a .a.a.a.a |{/a} (ba) z .a (d'^c'ba) |{/a} (ba) z .a .a.a.a.a | %38
{/a} (ba) z2!f! [Bb]3 (3(a/g/f/ | g2) z2 [Aa]3 (3(g/f/e/ | f)fga (b^c'/d'/ c').b | %41
 (ba).f.a (ag).f.e | d2 z!p! .a ((d'^c'ba)) |{/a} ((ba)) z .a .a.a.a.a | %44
{/a} ((ba)) z .a ((d'^c'ba)) |{/a} ((ba)) z .a .a.a.a.a |{/a} (ba) z2!f! .[Bb]3 (3(.a/.g/.f/ | %47
 .g2) z2 .[Aa]3 (3(.g/.f/.e/ | .f).f.g.a (.b.^c'/.d'/ .c').b | (.b.a).f.a (.a.g).f.e | %50
 .d.A.B.^c .d.d (.Te.d/.e/ | .f).^c.d.e .f.f (.Tg.f/.g/ | .a).a (.T^a.^g/.a/ .b2) z2 | %53
!p! (.B3 .e) (.d.^c.B.=A) | .[Fd] z .[Ff] z .[Fd] z"^Back to beginning" z2 :| %55
!f! !>![DFAd]2 z .[A,A] [Dd]2 z .[A,A] | [Dd].[A,A].[Dd].[Ff] [Aa]2 z2 | %57
 [Aa]2 z .[Ff] [Aa]2 z .[Ff] | [Aa].[Ff].[^D^d].[Ff] [B,B]2 z2 | z2 z!p! .g (.=c'.b.a.g) | %60
 (.Ta.g) z .g .g.g.g.g | (.Ta.g) z .g (.c'.b.a.g) | (.Ta.g) z .g .g.g.g.g | %63
 (.Ta.g) z .g (.c'.b.a.g) | (.Ta.^g) z .g .g.g.g.g | (.Tb.a) z .a (.c'._b.a.=g) | %66
 (.Ta.^f) z .f .f.f.f.f | (.Ta.g) z ._e (.g.=f.e.d) | (.Td.^c) z .c .c.c.c.c | %69
 (.T=e.d) z!f! (D E^FGA | =c_B) z (F GAB^c | =ed) z!p! (.[Dd] .[Ee].[Ff].[Gg].[Aa] | %72
 .[_B_b]2 .[=B=b]2 .[cc']2 .[^c^c']2) | d'8- | d'4 (Tf3 e/f/) | %75
!f! !>![GBg]2 z (.[Dd] [Gg]2) z .[Dd] | ([Gg].[Dd].[Gg].[Bb] [dd']2) z2 | %77
 !>![Cc]2 z (.[A,A] [Cc]2) z .[A,A] | ([Cc].[A,A].[F,F].[A,A] [D,D]2) z2 |!mf!{/a} .g2 g3 (.b.ag) | %80
 Tg.f f3 (.a.c'f) | Ta.g g3 (.b.ag) | Tg.f f3 (.a.c'f) | .g.g{.g} .f(.e/.f/) .g.g{.b} .a(.g/.a/) | %84
 .b.b{.d'} .c'(.b/.c'/) .[dd']2 z2 |!p! [Bd]4 [ce]4 |{/d} [Ac]2 [Ac]2{/c} [GB]2 [GB]2 | %87
{/B} .[EA]2 .[EA]2 (GF).E.F | .G z .A z .B z z2 | ([Bd]4 [ce]4) | (dc).c.c (cB).B.B | %91
 (BA).[FA].[FA] (GF[CE][CF]) | G4- G(TG/F/4G/4 AF) | B4- B(TB/A/4B/4 cA) | %94
 [Bd]/[Bd]/[Bd]/[Bd]/ [Bd]/[Bd]/[Bd]/([Bd]/ [ce]/)[ce]/[ce]/([ce]/ [cf]/)[cf]/[cf]/[cf]/ | %95
!<(! [Bg]/[Bg]/[Bg]/([Bg]/ [da]/)[da]/[da]/([da]/ [db]/)[db]/[db]/([db]/ [g^c']/)[gc']/[gc']/[gc']/!<)! | %96
!f! d'3 a (^c'>a) (c'>a) | d'3 a (^c'>a) (c'>a) | .d'.a.^c'.a .d'.a.c'.a | [Ff]DDD D2 z2 | %100
!p! (d3 (3c/B/A/ G) z e z | c z A z d z z2 | (B3 (3A/G/F/ E) z c z | (B4 A2) z2 | %104
 z .d'.d'.d' .d'.d'.d'.d' | .d'.d'.d'.d' (d'c'af) | ((fg)) z .e ((ed)) z .F | .G2 z .d (.g.f.e.d) | %108
 (.e.d) z .d .d.d.d.d | (.e.d) z .d (.g.f.e.d) | (.e.d) z .d .d.d.d.d | %111
 (.e.d) z2!f! .[Ee]3 (3(.d/.c/.B/ | .c2) z2 .[Dd]3 (3(.c/.B/.A/ | .B).B.c.d (.e.f/.g/ .f).e | %114
 (.e.d).B.d (.d.c).B.A | .G2 z!p! .d ((.g.f.e.d)) | ((.e.d)) z .d .d.d.d.d | %117
 ((.e.d)) z .d ((.g.f.e.d)) | ((.e.d)) z .d .d.d.d.d | (.e.d) z2!f! .[ee']3 (3(.d'/.c'/.b/ | %120
 .c'2) z2 .[dd']3 (3(.c'/.b/.a/ | .b).B.c.d ((.e.f/.g/ .f)).e | (.e.g).b.d' ((.d'.c')).b.a | %123
 .g.D.E.F .G.G (.TA.G/.A/ | .B).F.G.A .B.B (.Tc.B/.c/ | .d).d (.T_e._d/.e/ .=e2) z2 | %126
!p! (.E3 .A) (.G.F.E.=D) | (.d.^c.=c.B .d.^c.=c.B) | (.E3 .A) (.G.F.E.D) | (.d.e.f.g .d.e.f.g) | %130
 .a2 z2!f! .[dd']2 z2 | .[Bdg]2 z (.d .B.G.B.d) | (.g.d.g.b .d'2) .[Adf]2 | %133
 .[Bdg]2 z (.d .B.G.B.d) | (.g.d.g.b .d'2) .[Adf]2 | .[Bdg]2 z2 .[Bdg]2 z2 | %136
 .[Bdg]2 .[G,G]>.[G,G] .[G,G]4 |] %137
V:2
|:!f! !>![G,,G,]2 z (.[D,,D,] [G,,G,]2) z .[D,,D,] | ([G,,G,].[D,,D,].[G,,G,].[B,,B,] [D,D]2) z2 | %2
 !>![C,C]2 z (.[A,,A,] [C,C]2) z .[A,,A,] | ([C,C].[A,,A,].[F,,F,].[A,,A,] [D,,D,]2) z2 | %4
!p! .G,/.[B,D]/.G,/.[B,D]/ .G,/.[B,D]/.G,/.[B,D]/ .G,/.[B,D]/.G,/.[B,D]/ .G,/.[B,D]/.G,/.[B,D]/ | %5
 .G,/.[CD]/.G,/.[CD]/ .G,/.[CD]/.G,/.[CD]/ .G,/.[CD]/.G,/.[CD]/ .G,/.[CD]/.G,/.[CD]/ | %6
!p! .G,/.[B,D]/.G,/.[B,D]/ .G,/.[B,D]/.G,/.[B,D]/ .G,/.[B,D]/.G,/.[B,D]/ .G,/.[B,D]/.G,/.[B,D]/ | %7
 .G,/.[CD]/.G,/.[CD]/ .G,/.[CD]/.G,/.[CD]/ .G,/.[CD]/.G,/.[CD]/ .G,/.[CD]/.G,/.[CD]/ | %8
 (.G,,.G,)(.A,,.A,) (.B,,.B,)(.F,,.F,) | (.G,,.G,)(.A,,.A,) .[B,,G,B,]2 z2 | z8 | %11
 .D,,2 .D,2 .E,,2 .E,2 | .[C,,C,]2 .[C,,C,]2 [D,,A,,C,D,]2 [D,,A,,D,]2 | %13
 .B,,,.B,,.D,,.D, .G,,.G,.B,,.B, | z8 | .D,,2 .D,2 .E,,2 .E,2 | .C,,2 .C,2 .C,,2 .C,2 | %17
 .G,,.G,.G,,.G, .G,,.G,.G,,.G, | .G,,.G,.G,,.G, .G,,.G,.G,,.G, | .G,,.G,.G,,.G, .G,,.G,.G,,.G, | %20
"^Cresc." .G,,.G,.F,,.F, .G,,.G,.E,,.E, | %21
[K:treble] .D/.[FA]/.D/.[FA]/ .D/.[FA]/.D/.[FA]/ .E/.[GA]/.E/.[GA]/ .E/.[GA]/.E/.[GA]/ | %22
 .D/.[FA]/.D/.[FA]/ .D/.[FA]/.D/.[FA]/ .E/.[GA]/.E/.[GA]/ .E/.[GA]/.E/.[GA]/ | %23
[K:bass] .D,.E,.F,.E, .D,.E,.F,.D, | .G,.A,.B,.A, .G,.A,.B,.^G, | .A,,.A,.A,,.A, .A,,.A,.A,,.A, | %26
 .[A,,E,A,].A,,.A,,.A,, A,,2 z2 |!pp! z6 .^D,,.^D, | .E,,.E,.D,,.D, .^C,,.^C,.A,,,A,, | %29
 z2 .^A,,,.^A,, .B,,,.B,,.G,,,.G,, | .A,,,.A,,.A,, .A,2!p! [^G,,^G,][=G,,=G,][E,,E,] | %31
[K:treble]!pp! (A3 (3G/F/E/ D) z B z | G z E z A z G z | %33
[K:bass] [B,,,B,,] z [G,,G,] z [A,,A,] z [A,,,A,,] z | %34
[K:treble] .[DF].[DF].[EG].[EG] .[FA].[FA].[DF].[DF] | .[^CE].[CE].[DF].[DF] .[EG].[EG].[CE].[CE] | %36
 .[DF].[DF].[EG].[EG] .[FA].[FA].[DF].[DF] | .[^CE].[CE].[DF].[DF] .[EG].[EG].[CE].[CE] | %38
 z[K:bass] .[D,,D,].[F,,F,].[E,,E,] .[^D,,^D,].[B,,,B,,].[^C,,^C,].[D,,D,] | %39
 .[E,,E,].[G,,G,].[E,,E,].[D,,=D,] .[^C,,^C,].[A,,,A,,].[B,,,B,,].[C,,C,] | %40
 .[D,,D,].[D,,D,].[E,,E,].[F,,F,] .[G,,G,].G,,.G,.G,, | .A,.A,,.A,.A,, .A,.A,,.A,.A,,, | %42
[K:treble-8] .[df].[df].[eg].[eg] .[fa].[fa].[df].[df] | %43
 .[^ce].[ce].[df].[df] .[eg].[eg].[ce].[ce] | .[df].[df].[eg].[eg] .[fa].[fa].[df].[df] | %45
 .[^ce].[ce].[df].[df] .[eg].[eg].[ce].[ce] | z[K:bass]!mf! .D,,.F,.E,, .^D,.B,,,.^C,.^D,, | %47
 .E,.G,,.E,.D,, .^C,.A,,,.B,,.^C,, | .D,.D,,.E,.F,, .G,.G,,.G,.G,, | %49
 .A,.A,,.A,.A,, .A,.A,,.A,.A,, | .D,.A,,,.B,,.^C,, .D,.D,,.E,.E,, | %51
 .F,.^C,,.D,.E,, .F,.F,,.G,.G,, | .A,.A,,.^A,.^A,, .[B,,B,]2 z2 |!p! ([G,,G,]4 [=A,,A,]4) | %54
 .D,,.D,.D,,.D, .D,,.D, z2 :|!f! !>![D,,D,]2 z .[A,,,A,,] [D,,D,]2 z .[A,,,A,,] | %56
 [D,,D,].[A,,,A,,].[D,,D,].[F,,F,] [A,,A,]2 z2 | [A,,A,]2 z .[F,,F,] [A,,A,]2 z .[F,,F,] | %58
 [A,,A,].[F,,F,].[^D,,^D,].[F,,F,] [B,,,B,,]2 z2 | %59
[K:treble]!pp! .[CE].[CE].[D=F].[DF] .[EG].[EG].[CE].[CE] | %60
 .[B,=D].[B,D].[CE].[CE] .[D=F].[DF].[B,D].[B,D] | .[CE].[CE].[D=F].[DF] .[EG].[EG].[CE].[CE] | %62
 .[B,=D].[B,D].[CE].[CE] .[D=F].[DF].[B,D].[B,D] | .[CE].[CE].[D=F].[DF] .[EG].[EG].[CE].[CE] | %64
 .[B,=D].[B,D].[CE].[CE] .[D=F].[DF].[B,D].[B,D] | %65
 .[A,C].[A,C].[B,D].[B,D] .[CE].[CE].[A,C].[A,C] | %66
 .[A,C].[A,C].[_B,D].[B,D] .[C_E].[CE].[A,C].[A,C] | %67
 .[G,_B,].[G,B,].[F,A,].[F,A,] .[G,B,].[G,B,].[FA].[GA] | %68
 .[G_B].[GB].[FA].[FA] .[GB].[G,B].[F,A].[G,G] | %69
[K:bass] [D,F,A,D]2 z!f! ([D,,D,] [E,,E,][F,,F,][G,,G,][A,,A,] | %70
 [C,C][_B,,_B,]) z ([F,,F,] [G,,G,][A,,A,][B,,B,][^C,^C] | [E,E][D,D]) z z z4 | z8 | %73
[K:treble]!pp! .D.d.D.e .C.c.C.d | .B,.B(.B,.d) (.D.c).B,.A | %75
[K:bass]!f! !>![G,,G,]2 z (.[D,,D,] [G,,G,]2) z .[D,,D,] | %76
 ([G,,G,].[D,,D,].[G,,G,].[B,,B,] [D,D]2) z2 | !>![C,C]2 z (.[A,,A,] [C,C]2) z .[A,,A,] | %78
 ([C,C].[A,,A,].[F,,F,].[A,,A,] [D,,D,]2) z2 | %79
!p! .G,/.[B,D]/.G,/.[B,D]/ .G,/.[B,D]/.G,/.[B,D]/ .G,/.[B,D]/.G,/.[B,D]/ .G,/.[B,D]/.G,/.[B,D]/ | %80
 .G,/.[CD]/.G,/.[CD]/ .G,/.[CD]/.G,/.[CD]/ .G,/.[CD]/.G,/.[CD]/ .G,/.[CD]/.G,/.[CD]/ | %81
!p! .G,/.[B,D]/.G,/.[B,D]/ .G,/.[B,D]/.G,/.[B,D]/ .G,/.[B,D]/.G,/.[B,D]/ .G,/.[B,D]/.G,/.[B,D]/ | %82
 .G,/.[CD]/.G,/.[CD]/ .G,/.[CD]/.G,/.[CD]/ .G,/.[CD]/.G,/.[CD]/ .G,/.[CD]/.G,/.[CD]/ | %83
 (.G,,.G,)(.A,,.A,) (.B,,.B,)(.F,,.F,) | (.G,,.G,)(.A,,.A,) .[B,,G,B,]2 z2 | z8 | %86
 .D,,2 .D,2 .E,,2 .E,2 | .[C,,C,]2 .[C,,C,]2 [D,,A,,C,D,]2 [D,,A,,D,]2 | %88
 .B,,,.B,,.D,,.D, .G,,.G,.B,,.B, | z8 | .D,,2 .D,2 .E,,2 .E,2 | .C,,2 .C,2 .C,,2 .C,2 | %92
 .G,,.G,.G,,.G, .G,,.G,.G,,.G, | .G,,.G,.G,,.G, .G,,.G,.G,,.G, | .G,,.G,.G,,.G, .G,,.G,.G,,.G, | %95
"^Cresc." .G,,.G,.F,,.F, .G,,.G,.E,,.E, | %96
[K:treble] .D/.[FA]/.D/.[FA]/ .D/.[FA]/.D/.[FA]/ .E/.[GA]/.E/.[GA]/ .E/.[GA]/.E/.[GA]/ | %97
 .D/.[FA]/.D/.[FA]/ .D/.[FA]/.D/.[FA]/ .E/.[GA]/.E/.[GA]/ .E/.[GA]/.E/.[GA]/ | %98
[K:bass] !//![DA]2 !//![EA]2 !//![DA]2 !//![EA]2 | [D,,A,,D,]D,,D,,D,, D,,2 z2 | %100
[K:bass-8]!pp! z6 ._A,,._A, | .A,,.A,.G,,.G, .F,,.F,.D,,.D, | z2 [_E,,_E,]2 [=E,,=E,] z [C,,C,] z | %103
 [D,,D,]2 [D,D]3 [^C^c][=C=c][A,A] |[K:treble]!p! ((d3 (3c/B/A/ G)) z e z | c z A z d z c z | %106
[K:bass] .E,,.E,.C,,.C, .D,,.D,.D,,.D, | %107
[K:treble] .[G,B,].[G,B,].[A,C].[A,C] .[B,D].[B,D].[G,B,].[G,B,] | %108
 .[F,A,].[F,A,].[G,B,].[G,B,] .[A,C].[A,C].[F,A,].[F,A,] | %109
 .[G,B,].[G,B,].[A,C].[A,C] .[B,D].[B,D].[G,B,].[G,B,] | %110
 .[F,A,].[F,A,].[G,B,].[G,B,] .[A,C].[A,C].[F,A,].[F,A,] | %111
 z[K:bass]!f! .G,,,.B,,.A,,, .A,,.E,,,.F,,._A,,, | .A,,.C,,.A,,.G,,, .F,,.D,,,.E,,.F,,, | %113
 .G,,,.G,,.A,,,.B,, .C,,.C,.C,,.C, | .D,.D,,.D,.D,, .D,.D,,.D,.D,, | %115
[K:treble-8] .[GB].[GB].[Ac].[Ac] .[Bd].[Bd].[GB].[GB] | %116
 .[FA].[FA].[GB].[GB] .[Ac].[Ac].[FA].[FA] | .[GB].[GB].[Ac].[Ac] .[Bd].[Bd].[GB].[GB] | %118
 .[FA].[FA].[GB].[GB] .[Ac].[Ac].[FA].[FA] |!f! z[K:bass] .G,,,.B,,.A,,, ._A,,.E,,,.F,,._A,,, | %120
 .A,,.C,,.A,,.G,,, .F,,.D,,,.E,,.F,,, | .G,,.G,,,.A,,.B,,, .C,.C,,.C,.C,, | %122
 .D,.D,,.D,.D,, .D,.D,,.D,.D,, | .G,,.D,,,.E,,.F,,, .G,,.G,,,.A,,.A,,, | %124
 .B,,.F,,,.G,,.A,,, .B,,.B,,,.C,.C,, | .D,.D,,._E,._E,, .=E,2 z2 |!pp! .[C,,C,]4 .[D,,D,]4 | %127
 .[G,,B,,D,G,]2 z2 z4 | .[C,,C,]4 .[D,,D,]4 | .[G,,B,,D,G,]2 z2 z4 | %130
 .[A,,C,E,]2 z2 .[A,,C,D,F,]2 z2 | %131
 [G,B,D]/[G,B,D]/[G,B,D]/[G,B,D]/ [G,B,D]/[G,B,D]/[G,B,D]/[G,B,D]/ [G,B,D]/[G,B,D]/[G,B,D]/[G,B,D]/ [G,B,D]/[G,B,D]/[G,B,D]/[G,B,D]/ | %132
 [G,B,D]/[G,B,D]/[G,B,D]/[G,B,D]/ [G,B,D]/[G,B,D]/[G,B,D]/[G,B,D]/ [G,B,D]/[G,B,D]/[G,B,D]/[G,B,D]/ [A,CD]/[A,CD]/[A,CD]/[A,CD]/ | %133
!mf! [G,B,D]/[G,B,D]/[G,B,D]/[G,B,D]/ [G,B,D]/[G,B,D]/[G,B,D]/[G,B,D]/ [G,B,D]/[G,B,D]/[G,B,D]/[G,B,D]/ [G,B,D]/[G,B,D]/[G,B,D]/[G,B,D]/ | %134
 [G,B,D]/[G,B,D]/[G,B,D]/[G,B,D]/ [G,B,D]/[G,B,D]/[G,B,D]/[G,B,D]/ [G,B,D]/[G,B,D]/[G,B,D]/[G,B,D]/ [A,CD]/[A,CD]/[A,CD]/[A,CD]/ | %135
 .[G,,,G,,].[B,,,B,,].[D,,D,].[G,,G,] .[B,,B,].[G,,G,].[D,D].[B,,B,] | %136
 .[G,,G,]2 .[G,,G,]>.[G,,G,] .[G,,G,]4 |] %137
V:3
|: x8 | x8 | x8 | x8 | x8 | x8 | x8 | x8 | x8 | x8 | x8 | x8 | x8 | x8 | x8 | x8 | x8 | x8 | x8 | %19
 x8 | x8 |[K:treble] x8 | x8 |[K:bass] x8 | x8 | x8 | x8 | x8 | x8 | x8 | x8 |[K:treble] x8 | x8 | %33
[K:bass] x8 |[K:treble] x8 | x8 | x8 | x8 | x[K:bass] x7 | x8 | x8 | x8 |[K:treble-8] x8 | x8 | %44
 x8 | x8 | x[K:bass] x7 | x8 | x8 | x8 | x8 | x8 | x8 | x8 | x8 :| x8 | x8 | x8 | x8 | %59
[K:treble] x8 | x8 | x8 | x8 | x8 | x8 | x8 | x8 | x8 | x8 |[K:bass] x8 | x8 | x8 | x8 | %73
[K:treble] x8 | x8 |[K:bass] x8 | x8 | x8 | x8 | x8 | x8 | x8 | x8 | x8 | x8 | x8 | x8 | x8 | x8 | %89
 x8 | x8 | [C,,C,]4 [C,,C,]4 | x8 | x8 | x8 | x8 |[K:treble] x8 | x8 |[K:bass] x8 | x8 | %100
[K:bass-8] x8 | x8 | x8 | x8 |[K:treble] x8 | x8 |[K:bass] x8 |[K:treble] x8 | x8 | x8 | x8 | %111
 x[K:bass] x7 | x8 | x8 | x8 |[K:treble-8] x8 | x8 | x8 | x8 | x[K:bass] x7 | x8 | x8 | x8 | x8 | %124
 x8 | x6 z2 | x8 | x8 | x8 | x8 | x8 | x8 | x8 | x8 | x8 | x8 | x8 |] %137

